X:1445
T:Polska efter Ingels Jan Andersson (SvL Dalarna 1445)
R:Polska
S:Ingels Jan Andersson
O:St. Skedvi, Dalarna
N:Svenska Låtar Dalarna, 1445
B:Svenska Låtar Dalarna
Z:Till abc Jonas Brunskog
M:3/4
L:1/8
Q:1/4=138
K:D
D2 FA GE|D2 FA d2|D2 FA GF|F2 E4:|
|:A2 Bc d(B|A2) Bc d2|A2 Bc d(B|A2) Bc d2|
A2 Bc dB|e2 cA d2|A2 FA GC|E2 D4:|

